study/img/density.svg

<?xml version="1.0" standalone="no"?><!DOCTYPE svg PUBLIC "-//W3C//DTD SVG 1.1//EN" "http://www.w3.org/Graphics/SVG/1.1/DTD/svg11.dtd"><svg style="width: 200px; height: 100px;" version="1.1" xmlns="http://www.w3.org/2000/svg" xmlns:xlink="http://www.w3.org/1999/xlink"><defs xmlns="http://www.w3.org/1999/xhtml"><style type="text/css"><![CDATA[
#panel { display: grid; grid-gap: 10px 10px; margin: 20px; }
#panel button { align-self: center; margin: auto; }
.vis { border-style: solid; border-width: 5px; border-color: rgb(255, 255, 255); }
.selected { border-color: crimson; }
.vis:hover { border-style: solid; border-width: 5px; border-color: rgb(51, 51, 51); }
#prompt { color: gray; }
#prompt span { color: black; }]]></style></defs><path fill="#333" d="M0,99.99999818623276C1.3333333333333333,99.99999228540861,2.666666666666667,99.99998638458446,4,99.99996278128785C5.333333333333333,99.99993917799124,6.666666666666667,99.99979089934261,8,99.99944713545216C9.333333333333334,99.9991033715617,10.666666666666666,99.99764916877805,12,99.99405323542983C13.333333333333334,99.99045730208161,14.666666666666666,99.9805910011592,16,99.95366653261794C17.333333333333332,99.92674206407669,18.666666666666668,99.88190466663896,20,99.738380934681C21.333333333333332,99.59485720272305,22.666666666666668,99.41654603238851,24,98.9284979119103C25.333333333333336,98.44044979143209,26.666666666666668,97.78843360781053,28.000000000000004,96.8100922118117C29.333333333333336,95.83175081581288,30.666666666666668,94.39614835938848,32,93.05844953591736C33.333333333333336,91.72075071244625,34.666666666666664,89.96923891942187,36,88.78389927098505C37.333333333333336,87.59855962254822,38.666666666666664,86.60482565708074,40,85.9464116452964C41.333333333333336,85.28799763351205,42.666666666666664,85.2667672876212,44,84.83341520027902C45.333333333333336,84.40006311293683,46.666666666666664,84.19247661096931,48,83.34629912124329C49.333333333333336,82.50012163151727,50.666666666666664,81.14711027304273,52,79.75635026192292C53.333333333333336,78.3655902508031,54.66666666666667,76.31926999718202,56.00000000000001,75.00173905452439C57.333333333333336,73.68420811186677,58.66666666666667,71.85116460597713,60,71.85116460597713C61.333333333333336,71.85116460597713,62.666666666666664,72.0010013913211,64,72.30067496200901C65.33333333333333,72.60034853269693,66.66666666666667,74.93777039196245,68,75.05981583102111C69.33333333333333,75.18186127007978,70.66666666666667,75.24288398960911,72,75.24288398960911C73.33333333333333,75.24288398960911,74.66666666666667,71.57468583042281,76,67.94374182093931C77.33333333333333,64.31279781145581,78.66666666666667,58.35179764744297,80,53.45721993270811C81.33333333333333,48.56264221797324,82.66666666666667,42.3364597063355,84,38.576275532530104C85.33333333333333,34.816091358724705,86.66666666666667,31.06542826186813,88,30.896114889875733C89.33333333333333,30.726801517883334,90.66666666666667,30.811458203879535,92,30.642144831887137C93.33333333333333,30.47283145989474,94.66666666666667,30.347338337339696,96,29.75772534824482C97.33333333333333,29.16811235914994,98.66666666666667,24.842382703458494,100,21.17662701257771C101.33333333333333,17.51087132169693,102.66666666666667,11.292629038389748,104,7.7631912029601295C105.33333333333333,4.233753367530511,106.66666666666667,0,108,0C109.33333333333334,0,110.66666666666667,1.7550622509906377,112.00000000000001,5.265186752971914C113.33333333333334,8.775311254953152,114.66666666666666,15.470586204236643,115.99999999999999,21.35547485844627C117.33333333333333,27.24036351265596,118.66666666666666,34.685228097870635,120,40.5745186782299C121.33333333333333,46.463809258589144,122.66666666666667,52.296569554537605,124,56.691218340601814C125.33333333333333,61.085867126666024,126.66666666666667,64.50527187988482,128,66.94241139461516C129.33333333333334,69.37955090934551,130.66666666666666,70.81422281346094,132,71.31405542898389C133.33333333333334,71.81388804450684,134.66666666666666,71.86516229782427,136,72.06380435226832C137.33333333333334,72.26244640671237,138.66666666666666,72.21117215339494,140,72.50590775564817C141.33333333333334,72.8006433579014,142.66666666666666,73.81548825252383,144,75.19621791531455C145.33333333333334,76.57694757810526,146.66666666666666,78.67966892367129,148,80.79028573239243C149.33333333333334,82.90090254111358,150.66666666666666,85.65915143099116,152,87.85991876764146C153.33333333333334,90.06068610429176,154.66666666666666,92.34718742789106,156,93.9948897522942C157.33333333333334,95.64259207669734,158.66666666666666,96.85008426805538,160,97.74613271406031C161.33333333333334,98.64218116006523,162.66666666666666,99.03847362490684,164,99.37118042832374C165.33333333333334,99.70388723174064,166.66666666666666,99.80289227149102,168,99.87024063344909C169.33333333333334,99.93758899540715,170.66666666666666,99.97126317638619,172,99.97126317638619C173.33333333333334,99.97126317638619,174.66666666666666,99.95911766219506,176,99.9348266338128C177.33333333333334,99.91053560543055,178.66666666666666,99.85614708514791,180,99.69878798781812C181.33333333333334,99.54142889048833,182.66666666666666,99.34241515411546,184,98.96375495474676C185.33333333333334,98.58509475537807,186.66666666666666,98.02239589217483,188,97.4268267916059C189.33333333333334,96.83125769103698,190.66666666666666,95.9543817112147,192,95.39034035133321C193.33333333333334,94.82629899145172,194.66666666666666,94.04257863231699,196,94.04257863231699C197.33333333333334,94.04257863231699,198.66666666666666,94.24408814886195,200,94.44559766540692L200,100C198.66666666666666,100,197.33333333333334,100,196,100C194.66666666666666,100,193.33333333333334,100,192,100C190.66666666666666,100,189.33333333333334,100,188,100C186.66666666666666,100,185.33333333333334,100,184,100C182.66666666666666,100,181.33333333333334,100,180,100C178.66666666666666,100,177.33333333333334,100,176,100C174.66666666666666,100,173.33333333333334,100,172,100C170.66666666666666,100,169.33333333333334,100,168,100C166.66666666666666,100,165.33333333333334,100,164,100C162.66666666666666,100,161.33333333333334,100,160,100C158.66666666666666,100,157.33333333333334,100,156,100C154.66666666666666,100,153.33333333333334,100,152,100C150.66666666666666,100,149.33333333333334,100,148,100C146.66666666666666,100,145.33333333333334,100,144,100C142.66666666666666,100,141.33333333333334,100,140,100C138.66666666666666,100,137.33333333333334,100,136,100C134.66666666666666,100,133.33333333333334,100,132,100C130.66666666666666,100,129.33333333333334,100,128,100C126.66666666666667,100,125.33333333333333,100,124,100C122.66666666666667,100,121.33333333333333,100,120,100C118.66666666666666,100,117.33333333333333,100,115.99999999999999,100C114.66666666666666,100,113.33333333333334,100,112.00000000000001,100C110.66666666666667,100,109.33333333333334,100,108,100C106.66666666666667,100,105.33333333333333,100,104,100C102.66666666666667,100,101.33333333333333,100,100,100C98.66666666666667,100,97.33333333333333,100,96,100C94.66666666666667,100,93.33333333333333,100,92,100C90.66666666666667,100,89.33333333333333,100,88,100C86.66666666666667,100,85.33333333333333,100,84,100C82.66666666666667,100,81.33333333333333,100,80,100C78.66666666666667,100,77.33333333333333,100,76,100C74.66666666666667,100,73.33333333333333,100,72,100C70.66666666666667,100,69.33333333333333,100,68,100C66.66666666666667,100,65.33333333333333,100,64,100C62.666666666666664,100,61.333333333333336,100,60,100C58.66666666666667,100,57.333333333333336,100,56.00000000000001,100C54.66666666666667,100,53.333333333333336,100,52,100C50.666666666666664,100,49.333333333333336,100,48,100C46.666666666666664,100,45.333333333333336,100,44,100C42.666666666666664,100,41.333333333333336,100,40,100C38.666666666666664,100,37.333333333333336,100,36,100C34.666666666666664,100,33.333333333333336,100,32,100C30.666666666666668,100,29.333333333333336,100,28.000000000000004,100C26.666666666666668,100,25.333333333333336,100,24,100C22.666666666666668,100,21.333333333333332,100,20,100C18.666666666666668,100,17.333333333333332,100,16,100C14.666666666666666,100,13.333333333333334,100,12,100C10.666666666666666,100,9.333333333333334,100,8,100C6.666666666666667,100,5.333333333333333,100,4,100C2.666666666666667,100,1.3333333333333333,100,0,100Z"/></svg>

<?xml version="1.0" encoding="utf-8"?>
<!-- Generator: Adobe Illustrator 16.0.4, SVG Export Plug-In . SVG Version: 6.00 Build 0)  -->
<!DOCTYPE svg PUBLIC "-//W3C//DTD SVG 1.1//EN" "http://www.w3.org/Graphics/SVG/1.1/DTD/svg11.dtd">
<svg version="1.1" id="Layer_1" xmlns="http://www.w3.org/2000/svg" xmlns:xlink="http://www.w3.org/1999/xlink" x="0px" y="0px"
	 width="200px" height="100px" viewBox="0 0 200 100" enable-background="new 0 0 200 100" xml:space="preserve">
<defs  xmlns="http://www.w3.org/1999/xhtml">
	<style  type="text/css">
		<![CDATA[
#panel { display: grid; grid-gap: 10px 10px; margin: 20px; }
#panel button { align-self: center; margin: auto; }
.vis { border-style: solid; border-width: 5px; border-color: rgb(255, 255, 255); }
.selected { border-color: crimson; }
.vis:hover { border-style: solid; border-width: 5px; border-color: rgb(51, 51, 51); }
#prompt { color: gray; }
#prompt span { color: black; }
			]]>
	</style>
</defs>
<path fill="#333333" d="M0,100c1.333,0,2.667,0,4,0s2.667,0,4,0s2.667-0.002,4-0.005c1.333-0.004,2.667-0.014,4-0.041
	s2.667-0.072,4-0.215s2.667-0.322,4-0.81c1.333-0.488,2.667-1.14,4-2.119s2.667-2.414,4-3.751c1.333-1.338,2.667-3.089,4-4.275
	c1.333-1.185,2.667-2.179,4-2.837c1.333-0.658,2.667-0.68,4-1.113c1.333-0.434,2.667-0.641,4-1.487s2.667-2.199,4-3.59
	s2.667-3.437,4-4.754c1.333-1.318,2.667-3.151,4-3.151s2.667,0.15,4,0.45s2.667,2.637,4,2.759s2.667,0.183,4,0.183
	s2.667-3.668,4-7.299s2.667-9.592,4-14.487s2.667-11.121,4-14.881s2.667-7.511,4-7.68s2.667-0.084,4-0.254s2.667-0.295,4-0.884
	c1.333-0.59,2.667-4.916,4-8.581c1.333-3.666,2.667-9.884,4-13.414S106.667,0,108,0s2.667,1.755,4,5.265s2.667,10.206,4,16.09
	s2.667,13.33,4,19.219c1.333,5.889,2.667,11.722,4,16.117c1.333,4.395,2.667,7.814,4,10.251s2.667,3.872,4,4.372
	c1.333,0.5,2.667,0.551,4,0.75s2.667,0.147,4,0.442s2.667,1.31,4,2.69s2.667,3.483,4,5.594c1.333,2.111,2.667,4.869,4,7.07
	s2.667,4.487,4,6.135c1.333,1.647,2.667,2.855,4,3.751s2.667,1.292,4,1.625c1.333,0.333,2.667,0.432,4,0.499s2.667,0.101,4,0.101
	s2.667-0.012,4-0.037c1.333-0.024,2.667-0.079,4-0.236s2.667-0.356,4-0.735c1.333-0.379,2.667-0.941,4-1.537s2.667-1.472,4-2.037
	c1.333-0.564,2.667-1.348,4-1.348s2.667,0.202,4,0.403V100c-1.333,0-2.667,0-4,0s-2.667,0-4,0s-2.667,0-4,0s-2.667,0-4,0
	s-2.667,0-4,0s-2.667,0-4,0s-2.667,0-4,0s-2.667,0-4,0s-2.667,0-4,0s-2.667,0-4,0s-2.667,0-4,0s-2.667,0-4,0s-2.667,0-4,0
	s-2.667,0-4,0s-2.667,0-4,0s-2.667,0-4,0s-2.667,0-4,0s-2.667,0-4,0s-2.667,0-4,0s-2.667,0-4,0s-2.667,0-4,0s-2.667,0-4,0
	s-2.667,0-4,0s-2.667,0-4,0s-2.667,0-4,0s-2.667,0-4,0s-2.667,0-4,0s-2.667,0-4,0s-2.667,0-4,0s-2.667,0-4,0s-2.667,0-4,0
	s-2.667,0-4,0s-2.667,0-4,0s-2.667,0-4,0s-2.667,0-4,0s-2.667,0-4,0s-2.667,0-4,0s-2.667,0-4,0s-2.667,0-4,0s-2.667,0-4,0
	s-2.667,0-4,0s-2.667,0-4,0s-2.667,0-4,0s-2.667,0-4,0s-2.667,0-4,0s-2.667,0-4,0s-2.667,0-4,0s-2.667,0-4,0s-2.667,0-4,0
	S1.333,100,0,100z"/>
</svg>
